X:35
T:Polka (Halling)
R:Polka
R:Halling
O:Sweden
M:4/4
K:D
FG|\
A2d2 F2d2|c2EF GFEF|G2e2 c2e2|d2FG AGFG|\
A2d2 F2d2|c2EF GFEF|G2e2 c2e2|d4 d2:|
K:A
|: cd |\
e2e2 edcB|c2A2 A2GA|B2B2 edcB|c2A2 ABcd|\
e2e2 edcB|c2A2 A2GA|B2B2 edcB|A4A2:|
